X:1
T:Comping voicing check - A section (frozen) and B section (moving)
M:4/4
L:1/4
Q:1/4=86
K:DDor
V:2
[V:2] "F/A" [FAC]4 | "F/A" [FAC]4 | "F/A" [FAC]4 | "F/A" [FAC]4 |
[V:2] "F/A" [FAC]4 | "F/A" [FAC]4 | "F/G" [FAC]4 | "F/D" [FAC]4 |
[V:2] "Bbmaj7" [DFAc]4 | "A7b9#5" [^CFG_B]4 | "Gm9" [_B,DFA]4 | "C7b9#5" [E^G_B_D]4 |
[V:2] "FM9" [ACEG]4 | "Ebmaj7" [G_BDF]4 | "A7b9#5" [^CFG_B]4 | "A7b9#5" [^CFG_B]4 |]
